X:65
T: Dear Tobacco
R:hp 32 reel
M: 4/4
L: 1/8
R: reel
K:Gmaj
eAAc BG A2|eAAf gfed|eAAc BG B2| G2 GB dedB:|
efge fga2| efge dedB|efge fg A2| G2 GB dedB:|

